img/terassy.svg

<svg width="115" height="115" viewBox="0 0 115 115" fill="none" xmlns="http://www.w3.org/2000/svg">
<g filter="url(#filter0_i_1874_14647)">
<rect width="115" height="115" rx="15" fill="#F8F4F4"/>
</g>
<g filter="url(#filter1_d_1874_14647)">
<rect x="12" y="24" width="64" height="38" fill="#D9D9D9"/>
<path fill-rule="evenodd" clip-rule="evenodd" d="M36 75H32V89C32 89.5523 32.8954 90 34 90C35.1046 90 36 89.5523 36 89V75Z" fill="#707070"/>
<path fill-rule="evenodd" clip-rule="evenodd" d="M17 65H13V77.1333C13 77.612 13.8954 78 15 78C16.1046 78 17 77.612 17 77.1333V65Z" fill="#707070"/>
<path fill-rule="evenodd" clip-rule="evenodd" d="M67 75H63V89C63 89.5523 63.8954 90 65 90C66.1046 90 67 89.5523 67 89V75Z" fill="#707070"/>
<path fill-rule="evenodd" clip-rule="evenodd" d="M103 74H99V88C99 88.5523 99.8954 89 101 89C102.105 89 103 88.5523 103 88V74Z" fill="#707070"/>
<path d="M30.6767 73L12 62H75.2932L104 73H30.6767Z" fill="white"/>
<rect x="31" y="73" width="73" height="4" fill="#D9D9D9"/>
<path d="M43.4998 62H75.4998L104 73L56.4998 73C56.4998 73 55.9998 71.5 57.4998 71.5C58.9998 71.5 59.5998 70.8001 57.9998 70.0001C56.3998 69.2001 53.6664 70.3334 52.4998 71.0001C51.4998 71.1667 49.1998 71.2001 47.9998 70.0001C46.7998 68.8001 50.4998 68.5001 52.4998 68.5001C55.6664 68.8334 61.1998 69.0001 57.9998 67.0001C53.9998 64.5001 50.4998 68.0001 43.4998 69.5001C37.8998 70.7001 34.4998 69.0001 33.4998 68.0001C31.9998 66.5 31.7575 63.5805 34.9998 62.5C36.4998 62.0001 43.4998 62 43.4998 62Z" fill="#C1141E"/>
<path d="M12 62L31 73V77L12 65.5V62Z" fill="#707070"/>
<g filter="url(#filter2_d_1874_14647)">
<path fill-rule="evenodd" clip-rule="evenodd" d="M64 57C63.4477 57 63 57.4477 63 58V59V73H65V59H71V73H73V59H79V73H81V59H87V73H89V59H95V73H97V59H102V73H104V59V58C104 57.4477 103.552 57 103 57H64Z" fill="white"/>
</g>
</g>
<defs>
<filter id="filter0_i_1874_14647" x="0" y="0" width="117" height="117" filterUnits="userSpaceOnUse" color-interpolation-filters="sRGB">
<feFlood flood-opacity="0" result="BackgroundImageFix"/>
<feBlend mode="normal" in="SourceGraphic" in2="BackgroundImageFix" result="shape"/>
<feColorMatrix in="SourceAlpha" type="matrix" values="0 0 0 0 0 0 0 0 0 0 0 0 0 0 0 0 0 0 127 0" result="hardAlpha"/>
<feOffset dx="2" dy="2"/>
<feGaussianBlur stdDeviation="3"/>
<feComposite in2="hardAlpha" operator="arithmetic" k2="-1" k3="1"/>
<feColorMatrix type="matrix" values="0 0 0 0 0 0 0 0 0 0 0 0 0 0 0 0 0 0 0.05 0"/>
<feBlend mode="normal" in2="shape" result="effect1_innerShadow_1874_14647"/>
</filter>
<filter id="filter1_d_1874_14647" x="9" y="23" width="98" height="72" filterUnits="userSpaceOnUse" color-interpolation-filters="sRGB">
<feFlood flood-opacity="0" result="BackgroundImageFix"/>
<feColorMatrix in="SourceAlpha" type="matrix" values="0 0 0 0 0 0 0 0 0 0 0 0 0 0 0 0 0 0 127 0" result="hardAlpha"/>
<feOffset dy="2"/>
<feGaussianBlur stdDeviation="1.5"/>
<feComposite in2="hardAlpha" operator="out"/>
<feColorMatrix type="matrix" values="0 0 0 0 0 0 0 0 0 0 0 0 0 0 0 0 0 0 0.25 0"/>
<feBlend mode="normal" in2="BackgroundImageFix" result="effect1_dropShadow_1874_14647"/>
<feBlend mode="normal" in="SourceGraphic" in2="effect1_dropShadow_1874_14647" result="shape"/>
</filter>
<filter id="filter2_d_1874_14647" x="61" y="55" width="45" height="20" filterUnits="userSpaceOnUse" color-interpolation-filters="sRGB">
<feFlood flood-opacity="0" result="BackgroundImageFix"/>
<feColorMatrix in="SourceAlpha" type="matrix" values="0 0 0 0 0 0 0 0 0 0 0 0 0 0 0 0 0 0 127 0" result="hardAlpha"/>
<feOffset/>
<feGaussianBlur stdDeviation="1"/>
<feComposite in2="hardAlpha" operator="out"/>
<feColorMatrix type="matrix" values="0 0 0 0 0 0 0 0 0 0 0 0 0 0 0 0 0 0 0.25 0"/>
<feBlend mode="normal" in2="BackgroundImageFix" result="effect1_dropShadow_1874_14647"/>
<feBlend mode="normal" in="SourceGraphic" in2="effect1_dropShadow_1874_14647" result="shape"/>
</filter>
</defs>
</svg>

<svg width="115" height="115" fill="none" xmlns="http://www.w3.org/2000/svg"><g filter="url(#filter0_i_1874_14647)"><rect width="115" height="115" rx="15" fill="#F8F4F4"/></g><g filter="url(#filter1_d_1874_14647)"><path fill="#D9D9D9" d="M12 24h64v38H12z"/><path fill-rule="evenodd" clip-rule="evenodd" d="M36 75h-4v14c0 .552.895 1 2 1s2-.448 2-1V75zM17 65h-4v12.133c0 .479.895.867 2 .867s2-.388 2-.867V65zm50 10h-4v14c0 .552.895 1 2 1s2-.448 2-1V75zm36-1h-4v14c0 .552.895 1 2 1s2-.448 2-1V74z" fill="#707070"/><path d="M30.677 73L12 62h63.293L104 73H30.677z" fill="#fff"/><path fill="#D9D9D9" d="M31 73h73v4H31z"/><path d="M43.5 62h32L104 73H56.5s-.5-1.5 1-1.5 2.1-.7.5-1.5-4.334.333-5.5 1c-1 .167-3.3.2-4.5-1-1.2-1.2 2.5-1.5 4.5-1.5 3.166.333 8.7.5 5.5-1.5-4-2.5-7.5 1-14.5 2.5-5.6 1.2-9-.5-10-1.5-1.5-1.5-1.742-4.42 1.5-5.5 1.5-.5 8.5-.5 8.5-.5z" fill="#C1141E"/><path d="M12 62l19 11v4L12 65.5V62z" fill="#707070"/><g filter="url(#filter2_d_1874_14647)"><path fill-rule="evenodd" clip-rule="evenodd" d="M64 57a1 1 0 00-1 1v15h2V59h6v14h2V59h6v14h2V59h6v14h2V59h6v14h2V59h5v14h2V58a1 1 0 00-1-1H64z" fill="#fff"/></g></g><defs><filter id="filter0_i_1874_14647" x="0" y="0" width="117" height="117" filterUnits="userSpaceOnUse" color-interpolation-filters="sRGB"><feFlood flood-opacity="0" result="BackgroundImageFix"/><feBlend in="SourceGraphic" in2="BackgroundImageFix" result="shape"/><feColorMatrix in="SourceAlpha" values="0 0 0 0 0 0 0 0 0 0 0 0 0 0 0 0 0 0 127 0" result="hardAlpha"/><feOffset dx="2" dy="2"/><feGaussianBlur stdDeviation="3"/><feComposite in2="hardAlpha" operator="arithmetic" k2="-1" k3="1"/><feColorMatrix values="0 0 0 0 0 0 0 0 0 0 0 0 0 0 0 0 0 0 0.05 0"/><feBlend in2="shape" result="effect1_innerShadow_1874_14647"/></filter><filter id="filter1_d_1874_14647" x="9" y="23" width="98" height="72" filterUnits="userSpaceOnUse" color-interpolation-filters="sRGB"><feFlood flood-opacity="0" result="BackgroundImageFix"/><feColorMatrix in="SourceAlpha" values="0 0 0 0 0 0 0 0 0 0 0 0 0 0 0 0 0 0 127 0" result="hardAlpha"/><feOffset dy="2"/><feGaussianBlur stdDeviation="1.5"/><feComposite in2="hardAlpha" operator="out"/><feColorMatrix values="0 0 0 0 0 0 0 0 0 0 0 0 0 0 0 0 0 0 0.25 0"/><feBlend in2="BackgroundImageFix" result="effect1_dropShadow_1874_14647"/><feBlend in="SourceGraphic" in2="effect1_dropShadow_1874_14647" result="shape"/></filter><filter id="filter2_d_1874_14647" x="61" y="55" width="45" height="20" filterUnits="userSpaceOnUse" color-interpolation-filters="sRGB"><feFlood flood-opacity="0" result="BackgroundImageFix"/><feColorMatrix in="SourceAlpha" values="0 0 0 0 0 0 0 0 0 0 0 0 0 0 0 0 0 0 127 0" result="hardAlpha"/><feOffset/><feGaussianBlur stdDeviation="1"/><feComposite in2="hardAlpha" operator="out"/><feColorMatrix values="0 0 0 0 0 0 0 0 0 0 0 0 0 0 0 0 0 0 0.25 0"/><feBlend in2="BackgroundImageFix" result="effect1_dropShadow_1874_14647"/><feBlend in="SourceGraphic" in2="effect1_dropShadow_1874_14647" result="shape"/></filter></defs></svg>
